X:1
T:Hark the Herald Angels Sing
T:Felix Mendelssohn (1840)
T:Charles Wesley (1739)
T:TTBB  translation Bacco Baccanels
T: Public domain
T: Public domain
T: Public domain
Z:Public domain
%%score [ 1 2 3 4 ]
L:1/8
M:4/4
K:G
V:1 treble-8 nm="Tenor" snm="T."
V:2 treble-8 nm="Tenor" snm="T."
V:3 bass nm="Bass" snm="B."
V:4 bass nm="Bass" snm="B."
V:1
 G2 B2 B3 A | G2 d2 d4 | d2 d2 e3 e | d2 d2 d4 | G2 B2 B3 A | G2 G2 G4 | F2 A2 d3 A | A2 A2 F4 | %8
w: Hark! The her- ald|an- gels sing,|"Glo- ry to the|new- born King:|peace on earth and|mer- cy mild,|God and sin- ners|re- con- ciled!"|
w: Christ, by high- est|heav'n a- dored,|Christ the ev- er|last- ing Lord!|Late in time be-|hold in come,|off- spring of the|Vir- gin's womb.|
w: Hail the heav'n- born|Prince of peace!|Hail the sun of|right- eous- ness!|Light and life to|all he brings,|ris'n with heal- ing|in His wings.|
 B2 B2 d2 d2 | d2 d2 d4 | B2 B2 d2 d2 | d2 d2 d4 | e2 e2 c2 d2 | e2 e2 e4 | d2 c2 B3 B | B2 d2 d4 | %16
w: Joy- ful, all ye|na- tions rise,|join the tri- umph|of the skies;|with th'an- ge- lic|host pro- claim,|"Christ is born in|Beth- leh- hem!"|
w: Veiled in flesh the|God- head see,|hail th'in- car- nate|de- i- ty,|pleased as man with|men to dwell,|Je- sus, our Em-|ma- nu- el.|
w: Mild He lays His|glo- ry by,|born that man no|more may die,|born to raise the|sons of earth|born to give them|sec- ond birth.|
 e3 e c2 d2 | e2 e2 e4 | d2 c2 B3 B | B2 c2 B4 |] %20
w: Hark! The her- ald|an- gels sing.|"Glo- ry to the|new- born King!"|
w: ||||
w: ||||
V:2
 D2 G2 G3 F | G2 B2 (B2 A2) | d2 d2 d3 c | B2 A2 B4 | D2 G2 G3 F | G2 B2 B2 A2 | d2 A2 A3 F | %7
w: Hark! The her- ald|an- gels sing, *|"Glo- ry to the|new- born King:|peace on earth and|mer- cy mild, *|God and sin- ners|
w: Christ, by high- est|heav'n a- dored, *|Christ the ev- er|last- ing Lord!|Late in time be-|hold in come, *|off- spring of the|
w: Hail the heav'n- born|Prince of peace! *|Hail the sun of|right- eous- ness!|Light and life to|all he brings, *|ris'n with heal- ing|
 F2 E2 D4 | d2 d2 d2 G2 | c2 B2 B2 A2 | d2 d2 d2 G2 | c2 B2 B2 A2 | e2 e2 e2 d2 | c2 B2 c4 | %14
w: re- con- ciled!"|Joy- ful, all ye|na- tions rise, *|join the tri- umph|of the skies; *|with th'an- ge- lic|host pro- claim,|
w: Vir- gin's womb.|Veiled in flesh the|God- head see, *|hail th'in- car- nate|de- i- ty, *|pleased as man with|men to dwell,|
w: in His wings.|Mild He lays His|glo- ry by, *|born that man no|more may die, *|born to raise the|sons of earth|
 A2 Bc d3 G | G2 A2 B4 | e3 e e2 d2 | c2 B2 c4 | A2 Bc d3 G | G2 A2 G4 |] %20
w: "Christ is * born in|Beth- leh- hem!"|Hark! The her- ald|an- gels sing.|"Glo- ry * to the|new- born King!"|
w: Je- sus, * our Em-|ma- nu- el.|||||
w: born to * give them|sec- ond birth.|||||
V:3
 B,,2 D,2 D,3 D, | D,2 G,2 (G,2 F,2) | G,2 G,2 A,3 A, | G,2 F,2 G,4 | B,,2 D,2 D,3 D, | %5
w: Hark! The her- ald|an- gels sing, *|"Glo- ry to the|new- born King:|peace on earth and|
w: Christ, by high- est|heav'n a- dored, *|Christ the ev- er|last- ing Lord!|Late in time be-|
w: Hail the heav'n- born|Prince of peace! *|Hail the sun of|right- eous- ness!|Light and life to|
 D,2 D,2 ^C,4 | D,2 E,2 F,3 D, | D,2 ^C,2 D,4 | D,2 G,2 G,2 G,2 | A,2 G,2 G,2 F,2 | %10
w: mer- cy mild,|God and sin- ners|re- con- ciled!"|Joy- ful, all ye|na- tions rise, *|
w: hold in come,|off- spring of the|Vir- gin's womb.|Veiled in flesh the|God- head see, *|
w: all he brings,|ris'n with heal- ing|in His wings.|Mild He lays His|glo- ry by, *|
 D,2 B,2 B,2 G,2 | A,2 G,2 G,2 F,2 | G,2 G,2 G,2 ^G,2 | A,2 ^G,2 A,4 | F,2 F,2 G,3 G, | %15
w: join the tri- umph|of the skies; *|with th'an- ge- lic|host pro- claim,|"Christ is born in|
w: hail th'in- car- nate|de- i- ty, *|pleased as man with|men to dwell,|Je- sus, our Em-|
w: born that man no|more may die, *|born to raise the|sons of earth|born to give them|
 G,2 A,2 B,4 | G,3 G, G,2 ^G,2 | A,2 ^G,2 A,4 | F,2 F,2 G,3 G, | E,2 F,2 D,4 |] %20
w: Beth- leh- hem!"|Hark! The her- ald|an- gels sing.|"Glo- ry to the|new- born King!"|
w: ma- nu- el.|||||
w: sec- ond birth.|||||
V:4
 G,,2 G,2 G,3 D, | B,,2 G,,2 D,4 | B,,2 B,,2 C,3 C, | D,2 D,2 G,4 | G,,2 G,2 G,3 D, | %5
w: Hark! The her- ald|an- gels sing,|"Glo- ry to the|new- born King:|peace on earth and|
w: Christ, by high- est|heav'n a- dored,|Christ the ev- er|last- ing Lord!|Late in time be-|
w: Hail the heav'n- born|Prince of peace!|Hail the sun of|right- eous- ness!|Light and life to|
 B,,2 G,,2 E,4 | D,2 ^C,2 D,3 D, | F,,2 A,,2 D,4 | G,2 G,2 B,2 B,2 | F,2 G,2 D,4 | %10
w: mer- cy mild,|God and sin- ners|re- con- ciled!"|Joy- ful, all ye|na- tions rise,|
w: hold in come,|off- spring of the|Vir- gin's womb.|Veiled in flesh the|God- head see,|
w: all he brings,|ris'n with heal- ing|in His wings.|Mild He lays His|glo- ry by,|
 G,2 G,2 B,2 B,2 | F,2 G,2 D,4 | C,2 C,2 C,2 B,,2 | A,,2 E,2 A,4 | D,2 D,2 G,3 G, | E,2 D,2 G,4 | %16
w: join the tri- umph|of the skies;|with th'an- ge- lic|host pro- claim,|"Christ is born in|Beth- leh- hem!"|
w: hail th'in- car- nate|de- i- ty,|pleased as man with|men to dwell,|Je- sus, our Em-|ma- nu- el.|
w: born that man no|more may die,|born to raise the|sons of earth|born to give them|sec- ond birth.|
 C,3 C, C,2 B,,2 | A,,2 E,2 A,4 | D,2 D,2 G,3 G, | E,2 D,2 G,4 |] %20
w: Hark! The her- ald|an- gels sing.|"Glo- ry to the|new- born King!"|
w: ||||
w: ||||

